src/public/images/header_background.svg

<svg width="1240" height="844" viewBox="0 0 1240 844" fill="none" xmlns="http://www.w3.org/2000/svg">
<g filter="url(#filter0_d_261_18808)">
<path d="M16 67.2C16 49.2783 16 40.3175 19.4878 33.4723C22.5557 27.4511 27.4511 22.5557 33.4723 19.4878C40.3175 16 49.2783 16 67.1999 16H1164.8C1182.72 16 1191.68 16 1198.53 19.4878C1204.55 22.5557 1209.44 27.4511 1212.51 33.4723C1216 40.3175 1216 49.2783 1216 67.2V768.8C1216 786.722 1216 795.682 1212.51 802.528C1209.44 808.549 1204.55 813.444 1198.53 816.512C1191.68 820 1182.72 820 1164.8 820H867.2C849.278 820 840.318 820 833.472 816.512C827.451 813.444 822.556 808.549 819.488 802.528C816 795.682 816 786.722 816 768.8V347.2C816 329.278 816 320.317 812.512 313.472C809.444 307.451 804.549 302.556 798.528 299.488C791.682 296 782.722 296 764.8 296H67.2C49.2783 296 40.3175 296 33.4723 292.512C27.4511 289.444 22.5557 284.549 19.4878 278.528C16 271.683 16 262.722 16 244.8V67.2Z" fill="#FFFFFE"/>
</g>
<defs>
<filter id="filter0_d_261_18808" x="0" y="0" width="1240" height="844" filterUnits="userSpaceOnUse" color-interpolation-filters="sRGB">
<feFlood flood-opacity="0" result="BackgroundImageFix"/>
<feColorMatrix in="SourceAlpha" type="matrix" values="0 0 0 0 0 0 0 0 0 0 0 0 0 0 0 0 0 0 127 0" result="hardAlpha"/>
<feOffset dx="4" dy="4"/>
<feGaussianBlur stdDeviation="10"/>
<feComposite in2="hardAlpha" operator="out"/>
<feColorMatrix type="matrix" values="0 0 0 0 0.478247 0 0 0 0 0.679167 0 0 0 0 0.667348 0 0 0 0.2 0"/>
<feBlend mode="normal" in2="BackgroundImageFix" result="effect1_dropShadow_261_18808"/>
<feBlend mode="normal" in="SourceGraphic" in2="effect1_dropShadow_261_18808" result="shape"/>
</filter>
</defs>
</svg>

<svg xmlns="http://www.w3.org/2000/svg" width="1240" height="844" fill="none"><g filter="url(#a)"><path fill="#FFFFFE" d="M16 67.2c0-17.922 0-26.883 3.488-33.728a32 32 0 0 1 13.984-13.984C40.318 16 49.278 16 67.2 16h1097.6c17.92 0 26.88 0 33.73 3.488a32.006 32.006 0 0 1 13.98 13.984C1216 40.318 1216 49.278 1216 67.2v701.6c0 17.922 0 26.882-3.49 33.728a32.007 32.007 0 0 1-13.98 13.984C1191.68 820 1182.72 820 1164.8 820H867.2c-17.922 0-26.882 0-33.728-3.488a32 32 0 0 1-13.984-13.984C816 795.682 816 786.722 816 768.8V347.2c0-17.922 0-26.883-3.488-33.728a32 32 0 0 0-13.984-13.984C791.682 296 782.722 296 764.8 296H67.2c-17.922 0-26.883 0-33.728-3.488a32 32 0 0 1-13.984-13.984C16 271.683 16 262.722 16 244.8V67.2Z"/></g><defs><filter id="a" width="1240" height="844" x="0" y="0" color-interpolation-filters="sRGB" filterUnits="userSpaceOnUse"><feFlood flood-opacity="0" result="BackgroundImageFix"/><feColorMatrix in="SourceAlpha" result="hardAlpha" values="0 0 0 0 0 0 0 0 0 0 0 0 0 0 0 0 0 0 127 0"/><feOffset dx="4" dy="4"/><feGaussianBlur stdDeviation="10"/><feComposite in2="hardAlpha" operator="out"/><feColorMatrix values="0 0 0 0 0.478247 0 0 0 0 0.679167 0 0 0 0 0.667348 0 0 0 0.2 0"/><feBlend in2="BackgroundImageFix" result="effect1_dropShadow_261_18808"/><feBlend in="SourceGraphic" in2="effect1_dropShadow_261_18808" result="shape"/></filter></defs></svg>
